static/cards/FrenchDeck/default/card_diamonds_07.svg

<svg width="219" height="304" viewBox="0 0 219 304" fill="none" xmlns="http://www.w3.org/2000/svg">
<g filter="url(#filter0_d_18_647)">
<g clip-path="url(#clip0_18_647)">
<rect x="8" y="4" width="203" height="288" rx="10" fill="white"/>
<path d="M19.5347 42.7588C19.5347 42.3184 19.6748 41.938 19.895 41.4976L30.0049 19.9365V19.7363H17.5928C16.3516 19.7363 15.751 19.0957 15.751 18.2148C15.751 17.314 16.3516 16.6733 17.5928 16.6733H31.8467C32.8877 16.6733 33.7485 17.394 33.7485 18.5752C33.7485 19.1357 33.4683 20.0566 33.0278 20.9976L22.8179 43.0391C22.4375 43.8398 21.957 44.3203 21.1162 44.3203C20.2954 44.3203 19.5347 43.6997 19.5347 42.7588Z" fill="#BC1E24"/>
<path d="M26.1801 52.104C26.1038 51.9653 25.8962 51.9653 25.8199 52.104C23.5263 56.2724 21.8722 58.4782 18.5553 61.8648C18.4816 61.9401 18.4816 62.0599 18.5553 62.1352C21.8722 65.5218 23.5263 67.7276 25.8199 71.896C25.8962 72.0347 26.1038 72.0347 26.1801 71.896C28.4737 67.7276 30.1278 65.5218 33.4447 62.1352C33.5184 62.0599 33.5184 61.9401 33.4447 61.8648C30.1278 58.4782 28.4737 56.2724 26.1801 52.104Z" fill="#BC1E24"/>
<path d="M199.465 253.241C199.465 253.682 199.325 254.062 199.105 254.502L188.995 276.063L188.995 276.264L201.407 276.264C202.648 276.264 203.249 276.904 203.249 277.785C203.249 278.686 202.648 279.327 201.407 279.327L187.153 279.327C186.112 279.327 185.251 278.606 185.251 277.425C185.251 276.864 185.532 275.943 185.972 275.002L196.182 252.961C196.563 252.16 197.043 251.68 197.884 251.68C198.705 251.68 199.465 252.3 199.465 253.241Z" fill="#BC1E24"/>
<path d="M192.82 243.896C192.896 244.035 193.104 244.035 193.18 243.896C195.474 239.728 197.128 237.522 200.445 234.135C200.518 234.06 200.518 233.94 200.445 233.865C197.128 230.478 195.474 228.272 193.18 224.104C193.104 223.965 192.896 223.965 192.82 224.104C190.526 228.272 188.872 230.478 185.555 233.865C185.482 233.94 185.482 234.06 185.555 234.135C188.872 237.522 190.526 239.728 192.82 243.896Z" fill="#BC1E24"/>
<path d="M65.9501 27.2599C65.7594 26.9134 65.2406 26.9134 65.0499 27.2599C59.3158 37.6809 55.1805 43.1955 46.8882 51.6621C46.7039 51.8503 46.7039 52.1498 46.8882 52.338C55.1805 60.8045 59.3158 66.3191 65.0499 76.7401C65.2406 77.0866 65.7594 77.0866 65.9501 76.7401C71.6842 66.3191 75.8195 60.8045 84.1118 52.338C84.2961 52.1498 84.2961 51.8503 84.1118 51.6621C75.8195 43.1955 71.6842 37.6809 65.9501 27.2599Z" fill="#BC1E24"/>
<path d="M65.9501 219.26C65.7594 218.913 65.2406 218.913 65.0499 219.26C59.3158 229.681 55.1805 235.196 46.8882 243.662C46.7039 243.85 46.7039 244.15 46.8882 244.338C55.1805 252.804 59.3158 258.319 65.0499 268.74C65.2406 269.087 65.7594 269.087 65.9501 268.74C71.6842 258.319 75.8195 252.804 84.1118 244.338C84.2961 244.15 84.2961 243.85 84.1118 243.662C75.8195 235.196 71.6842 229.681 65.9501 219.26Z" fill="#BC1E24"/>
<path d="M153.95 27.2599C153.759 26.9134 153.241 26.9134 153.05 27.2599C147.316 37.6809 143.181 43.1955 134.888 51.6621C134.704 51.8503 134.704 52.1498 134.888 52.338C143.181 60.8045 147.316 66.3191 153.05 76.7401C153.241 77.0866 153.759 77.0866 153.95 76.7401C159.684 66.3191 163.819 60.8045 172.112 52.338C172.296 52.1498 172.296 51.8503 172.112 51.6621C163.819 43.1955 159.684 37.6809 153.95 27.2599Z" fill="#BC1E24"/>
<path d="M65.9501 123.26C65.7594 122.913 65.2406 122.913 65.0499 123.26C59.3158 133.681 55.1805 139.196 46.8882 147.662C46.7039 147.85 46.7039 148.15 46.8882 148.338C55.1805 156.804 59.3158 162.319 65.0499 172.74C65.2406 173.087 65.7594 173.087 65.9501 172.74C71.6842 162.319 75.8195 156.804 84.1118 148.338C84.2961 148.15 84.2961 147.85 84.1118 147.662C75.8195 139.196 71.6842 133.681 65.9501 123.26Z" fill="#BC1E24"/>
<path d="M109.95 75.2599C109.759 74.9134 109.241 74.9134 109.05 75.2599C103.316 85.6809 99.1805 91.1955 90.8882 99.6621C90.7039 99.8503 90.7039 100.15 90.8882 100.338C99.1805 108.804 103.316 114.319 109.05 124.74C109.241 125.087 109.759 125.087 109.95 124.74C115.684 114.319 119.819 108.804 128.112 100.338C128.296 100.15 128.296 99.8503 128.112 99.6621C119.819 91.1955 115.684 85.6809 109.95 75.2599Z" fill="#BC1E24"/>
<path d="M153.95 123.26C153.759 122.913 153.241 122.913 153.05 123.26C147.316 133.681 143.181 139.196 134.888 147.662C134.704 147.85 134.704 148.15 134.888 148.338C143.181 156.804 147.316 162.319 153.05 172.74C153.241 173.087 153.759 173.087 153.95 172.74C159.684 162.319 163.819 156.804 172.112 148.338C172.296 148.15 172.296 147.85 172.112 147.662C163.819 139.196 159.684 133.681 153.95 123.26Z" fill="#BC1E24"/>
<path d="M153.95 219.26C153.759 218.913 153.241 218.913 153.05 219.26C147.316 229.681 143.181 235.196 134.888 243.662C134.704 243.85 134.704 244.15 134.888 244.338C143.181 252.804 147.316 258.319 153.05 268.74C153.241 269.087 153.759 269.087 153.95 268.74C159.684 258.319 163.819 252.804 172.112 244.338C172.296 244.15 172.296 243.85 172.112 243.662C163.819 235.196 159.684 229.681 153.95 219.26Z" fill="#BC1E24"/>
</g>
</g>
<defs>
<filter id="filter0_d_18_647" x="0" y="0" width="219" height="304" filterUnits="userSpaceOnUse" color-interpolation-filters="sRGB">
<feFlood flood-opacity="0" result="BackgroundImageFix"/>
<feColorMatrix in="SourceAlpha" type="matrix" values="0 0 0 0 0 0 0 0 0 0 0 0 0 0 0 0 0 0 127 0" result="hardAlpha"/>
<feOffset dy="4"/>
<feGaussianBlur stdDeviation="4"/>
<feComposite in2="hardAlpha" operator="out"/>
<feColorMatrix type="matrix" values="0 0 0 0 0.614771 0 0 0 0 0.70094 0 0 0 0 0.806257 0 0 0 1 0"/>
<feBlend mode="normal" in2="BackgroundImageFix" result="effect1_dropShadow_18_647"/>
<feBlend mode="normal" in="SourceGraphic" in2="effect1_dropShadow_18_647" result="shape"/>
</filter>
<clipPath id="clip0_18_647">
<rect x="8" y="4" width="203" height="288" rx="10" fill="white"/>
</clipPath>
</defs>
</svg>

<svg xmlns="http://www.w3.org/2000/svg" width="219" height="304" fill="none" viewBox="0 0 219 304"><g filter="url(#a)"><g clip-path="url(#b)"><rect width="203" height="288" x="8" y="4" fill="#fff" rx="10"/><path fill="#bc1e24" d="M19.535 42.759c0-.44.14-.821.36-1.261l10.11-21.561v-.2H17.593c-1.241 0-1.842-.641-1.842-1.522 0-.901.6-1.542 1.842-1.542h14.254c1.04 0 1.901.721 1.901 1.902 0 .56-.28 1.482-.72 2.423l-10.21 22.041c-.38.8-.861 1.281-1.702 1.281-.82 0-1.581-.62-1.581-1.561M26.18 52.104a.208.208 0 0 0-.36 0c-2.294 4.168-3.948 6.374-7.265 9.76a.193.193 0 0 0 0 .271c3.317 3.387 4.971 5.593 7.265 9.761a.208.208 0 0 0 .36 0c2.294-4.168 3.948-6.374 7.265-9.76a.193.193 0 0 0 0-.271c-3.317-3.387-4.971-5.593-7.265-9.761M199.465 253.241c0 .441-.14.821-.36 1.261l-10.11 21.561v.201h12.412c1.241 0 1.842.64 1.842 1.521 0 .901-.601 1.542-1.842 1.542h-14.254c-1.041 0-1.902-.721-1.902-1.902 0-.561.281-1.482.721-2.423l10.21-22.041c.381-.801.861-1.281 1.702-1.281.821 0 1.581.62 1.581 1.561M192.82 243.896a.208.208 0 0 0 .36 0c2.294-4.168 3.948-6.374 7.265-9.761a.194.194 0 0 0 0-.27c-3.317-3.387-4.971-5.593-7.265-9.761a.208.208 0 0 0-.36 0c-2.294 4.168-3.948 6.374-7.265 9.761a.194.194 0 0 0 0 .27c3.317 3.387 4.971 5.593 7.265 9.761M65.95 27.26a.52.52 0 0 0-.9 0c-5.734 10.42-9.87 15.936-18.162 24.402a.48.48 0 0 0 0 .676c8.293 8.466 12.428 13.981 18.162 24.402a.52.52 0 0 0 .9 0c5.734-10.42 9.87-15.935 18.162-24.402a.48.48 0 0 0 0-.676C75.82 43.196 71.684 37.681 65.95 27.26M65.95 219.26a.52.52 0 0 0-.9 0c-5.734 10.421-9.87 15.936-18.162 24.402a.48.48 0 0 0 0 .676c8.293 8.466 12.428 13.981 18.162 24.402a.52.52 0 0 0 .9 0c5.734-10.421 9.87-15.936 18.162-24.402a.48.48 0 0 0 0-.676c-8.292-8.466-12.428-13.981-18.162-24.402M153.95 27.26a.52.52 0 0 0-.9 0c-5.734 10.42-9.869 15.936-18.162 24.402a.483.483 0 0 0 0 .676c8.293 8.466 12.428 13.981 18.162 24.402a.52.52 0 0 0 .9 0c5.734-10.42 9.869-15.935 18.162-24.402a.483.483 0 0 0 0-.676c-8.293-8.466-12.428-13.981-18.162-24.402M65.95 123.26a.52.52 0 0 0-.9 0c-5.734 10.421-9.87 15.936-18.162 24.402a.48.48 0 0 0 0 .676c8.293 8.466 12.428 13.981 18.162 24.402a.52.52 0 0 0 .9 0c5.734-10.421 9.87-15.936 18.162-24.402a.48.48 0 0 0 0-.676c-8.292-8.466-12.428-13.981-18.162-24.402M109.95 75.26a.52.52 0 0 0-.9 0c-5.734 10.42-9.87 15.935-18.162 24.402a.48.48 0 0 0 0 .676c8.292 8.466 12.428 13.981 18.162 24.402a.52.52 0 0 0 .9 0c5.734-10.421 9.869-15.936 18.162-24.402a.483.483 0 0 0 0-.676c-8.293-8.467-12.428-13.981-18.162-24.402M153.95 123.26a.52.52 0 0 0-.9 0c-5.734 10.421-9.869 15.936-18.162 24.402a.483.483 0 0 0 0 .676c8.293 8.466 12.428 13.981 18.162 24.402a.52.52 0 0 0 .9 0c5.734-10.421 9.869-15.936 18.162-24.402a.483.483 0 0 0 0-.676c-8.293-8.466-12.428-13.981-18.162-24.402M153.95 219.26a.52.52 0 0 0-.9 0c-5.734 10.421-9.869 15.936-18.162 24.402a.483.483 0 0 0 0 .676c8.293 8.466 12.428 13.981 18.162 24.402a.52.52 0 0 0 .9 0c5.734-10.421 9.869-15.936 18.162-24.402a.483.483 0 0 0 0-.676c-8.293-8.466-12.428-13.981-18.162-24.402"/></g></g><defs><clipPath id="b"><rect width="203" height="288" x="8" y="4" fill="#fff" rx="10"/></clipPath><filter id="a" width="219" height="304" x="0" y="0" color-interpolation-filters="sRGB" filterUnits="userSpaceOnUse"><feFlood flood-opacity="0" result="BackgroundImageFix"/><feColorMatrix in="SourceAlpha" result="hardAlpha" values="0 0 0 0 0 0 0 0 0 0 0 0 0 0 0 0 0 0 127 0"/><feOffset dy="4"/><feGaussianBlur stdDeviation="4"/><feComposite in2="hardAlpha" operator="out"/><feColorMatrix values="0 0 0 0 0.614771 0 0 0 0 0.70094 0 0 0 0 0.806257 0 0 0 1 0"/><feBlend in2="BackgroundImageFix" result="effect1_dropShadow_18_647"/><feBlend in="SourceGraphic" in2="effect1_dropShadow_18_647" result="shape"/></filter></defs></svg>
